gmdp.ru/build/img/svg/equalizer.svg

<svg width="81" height="81" viewBox="0 0 81 81" fill="none" xmlns="http://www.w3.org/2000/svg">
<path d="M0 11.25H7.73438V30.75H0V11.25Z" fill="url(#paint0_linear_2800:27)"/>
<path d="M58.2656 50.25H66V69.75H58.2656V50.25Z" fill="url(#paint1_linear_2800:27)"/>
<path d="M29.1328 30.75H36.8672V50.25H29.1328V30.75Z" fill="url(#paint2_linear_2800:27)"/>
<path d="M5.80078 46.35H25.2656V34.65H5.80078C2.6021 34.65 0 37.2742 0 40.5C0 43.7258 2.6021 46.35 5.80078 46.35Z" fill="url(#paint3_linear_2800:27)"/>
<path d="M60.1992 34.65H40.7344V46.35H60.1992C63.3979 46.35 66 43.7258 66 40.5C66 37.2742 63.3979 34.65 60.1992 34.65Z" fill="url(#paint4_linear_2800:27)"/>
<path d="M60.1992 15.15H11.6016V26.85H60.1992C63.3979 26.85 66 24.2258 66 21C66 17.7742 63.3979 15.15 60.1992 15.15Z" fill="url(#paint5_linear_2800:27)"/>
<path d="M5.80078 65.85H54.3984V54.15H5.80078C2.6021 54.15 0 56.7742 0 60C0 63.2258 2.6021 65.85 5.80078 65.85Z" fill="url(#paint6_linear_2800:27)"/>
<defs>
<linearGradient id="paint0_linear_2800:27" x1="33" y1="11.25" x2="33" y2="69.75" gradientUnits="userSpaceOnUse">
<stop stop-color="#00FBEE"/>
<stop offset="1" stop-color="#00FBEE" stop-opacity="0.2"/>
</linearGradient>
<linearGradient id="paint1_linear_2800:27" x1="33" y1="11.25" x2="33" y2="69.75" gradientUnits="userSpaceOnUse">
<stop stop-color="#00FBEE"/>
<stop offset="1" stop-color="#00FBEE" stop-opacity="0.2"/>
</linearGradient>
<linearGradient id="paint2_linear_2800:27" x1="33" y1="11.25" x2="33" y2="69.75" gradientUnits="userSpaceOnUse">
<stop stop-color="#00FBEE"/>
<stop offset="1" stop-color="#00FBEE" stop-opacity="0.2"/>
</linearGradient>
<linearGradient id="paint3_linear_2800:27" x1="33" y1="11.25" x2="33" y2="69.75" gradientUnits="userSpaceOnUse">
<stop stop-color="#00FBEE"/>
<stop offset="1" stop-color="#00FBEE" stop-opacity="0.2"/>
</linearGradient>
<linearGradient id="paint4_linear_2800:27" x1="33" y1="11.25" x2="33" y2="69.75" gradientUnits="userSpaceOnUse">
<stop stop-color="#00FBEE"/>
<stop offset="1" stop-color="#00FBEE" stop-opacity="0.2"/>
</linearGradient>
<linearGradient id="paint5_linear_2800:27" x1="33" y1="11.25" x2="33" y2="69.75" gradientUnits="userSpaceOnUse">
<stop stop-color="#00FBEE"/>
<stop offset="1" stop-color="#00FBEE" stop-opacity="0.2"/>
</linearGradient>
<linearGradient id="paint6_linear_2800:27" x1="33" y1="11.25" x2="33" y2="69.75" gradientUnits="userSpaceOnUse">
<stop stop-color="#00FBEE"/>
<stop offset="1" stop-color="#00FBEE" stop-opacity="0.2"/>
</linearGradient>
</defs>
</svg>

<svg xmlns="http://www.w3.org/2000/svg" width="81" height="81" fill="none">
  <path fill="url(#a)" d="M0 11.25h7.734v19.5H0v-19.5Z"/>
  <path fill="url(#b)" d="M58.266 50.25H66v19.5h-7.734v-19.5Z"/>
  <path fill="url(#c)" d="M29.133 30.75h7.734v19.5h-7.734v-19.5Z"/>
  <path fill="url(#d)" d="M5.8 46.35h19.466v-11.7H5.8c-3.198 0-5.8 2.624-5.8 5.85 0 3.226 2.602 5.85 5.8 5.85Z"/>
  <path fill="url(#e)" d="M60.2 34.65H40.733v11.7H60.2c3.199 0 5.801-2.624 5.801-5.85 0-3.226-2.602-5.85-5.8-5.85Z"/>
  <path fill="url(#f)" d="M60.2 15.15H11.601v11.7h48.597c3.2 0 5.802-2.624 5.802-5.85 0-3.226-2.602-5.85-5.8-5.85Z"/>
  <path fill="url(#g)" d="M5.8 65.85h48.598v-11.7H5.801C2.602 54.15 0 56.774 0 60c0 3.226 2.602 5.85 5.8 5.85Z"/>
  <defs>
    <linearGradient id="a" x1="33" x2="33" y1="11.25" y2="69.75" gradientUnits="userSpaceOnUse">
      <stop stop-color="#00FBEE"/>
      <stop offset="1" stop-color="#00FBEE" stop-opacity=".2"/>
    </linearGradient>
    <linearGradient id="b" x1="33" x2="33" y1="11.25" y2="69.75" gradientUnits="userSpaceOnUse">
      <stop stop-color="#00FBEE"/>
      <stop offset="1" stop-color="#00FBEE" stop-opacity=".2"/>
    </linearGradient>
    <linearGradient id="c" x1="33" x2="33" y1="11.25" y2="69.75" gradientUnits="userSpaceOnUse">
      <stop stop-color="#00FBEE"/>
      <stop offset="1" stop-color="#00FBEE" stop-opacity=".2"/>
    </linearGradient>
    <linearGradient id="d" x1="33" x2="33" y1="11.25" y2="69.75" gradientUnits="userSpaceOnUse">
      <stop stop-color="#00FBEE"/>
      <stop offset="1" stop-color="#00FBEE" stop-opacity=".2"/>
    </linearGradient>
    <linearGradient id="e" x1="33" x2="33" y1="11.25" y2="69.75" gradientUnits="userSpaceOnUse">
      <stop stop-color="#00FBEE"/>
      <stop offset="1" stop-color="#00FBEE" stop-opacity=".2"/>
    </linearGradient>
    <linearGradient id="f" x1="33" x2="33" y1="11.25" y2="69.75" gradientUnits="userSpaceOnUse">
      <stop stop-color="#00FBEE"/>
      <stop offset="1" stop-color="#00FBEE" stop-opacity=".2"/>
    </linearGradient>
    <linearGradient id="g" x1="33" x2="33" y1="11.25" y2="69.75" gradientUnits="userSpaceOnUse">
      <stop stop-color="#00FBEE"/>
      <stop offset="1" stop-color="#00FBEE" stop-opacity=".2"/>
    </linearGradient>
  </defs>
</svg>
